svg/system/unlock_fill.svg

<?xml version="1.0" encoding="UTF-8"?>
<svg width="24px" height="24px" viewBox="0 0 24 24" version="1.1" xmlns="http://www.w3.org/2000/svg" xmlns:xlink="http://www.w3.org/1999/xlink">
    <title>unlock_fill</title>
    <g id="页面-1" stroke="none" stroke-width="1" fill="none" fill-rule="evenodd">
        <g id="System" transform="translate(-478.000000, -240.000000)">
            <g id="unlock_fill" transform="translate(478.000000, 240.000000)">
                 <path d="M24,0 L24,24 L0,24 L0,0 L24,0 Z M12.5934901,23.257841 L12.5819402,23.2595131 L12.5108777,23.2950439 L12.4918791,23.2987469 L12.4918791,23.2987469 L12.4767152,23.2950439 L12.4056548,23.2595131 C12.3958229,23.2563662 12.3870493,23.2590235 12.3821421,23.2649074 L12.3780323,23.275831 L12.360941,23.7031097 L12.3658947,23.7234994 L12.3769048,23.7357139 L12.4804777,23.8096931 L12.4953491,23.8136134 L12.4953491,23.8136134 L12.5071152,23.8096931 L12.6106902,23.7357139 L12.6232938,23.7196733 L12.6232938,23.7196733 L12.6266527,23.7031097 L12.609561,23.275831 C12.6075724,23.2657013 12.6010112,23.2592993 12.5934901,23.257841 L12.5934901,23.257841 Z M12.8583906,23.1452862 L12.8445485,23.1473072 L12.6598443,23.2396597 L12.6498822,23.2499052 L12.6498822,23.2499052 L12.6471943,23.2611114 L12.6650943,23.6906389 L12.6699349,23.7034178 L12.6699349,23.7034178 L12.678386,23.7104931 L12.8793402,23.8032389 C12.8914285,23.8068999 12.9022333,23.8029875 12.9078286,23.7952264 L12.9118235,23.7811639 L12.8776777,23.1665331 C12.8752882,23.1545897 12.8674102,23.1470016 12.8583906,23.1452862 L12.8583906,23.1452862 Z M12.1430473,23.1473072 C12.1332178,23.1423925 12.1221763,23.1452606 12.1156365,23.1525954 L12.1099173,23.1665331 L12.0757714,23.7811639 C12.0751323,23.7926639 12.0828099,23.8018602 12.0926481,23.8045676 L12.108256,23.8032389 L12.3092106,23.7104931 L12.3186497,23.7024347 L12.3186497,23.7024347 L12.3225043,23.6906389 L12.340401,23.2611114 L12.337245,23.2485176 L12.337245,23.2485176 L12.3277531,23.2396597 L12.1430473,23.1473072 Z" id="MingCute" fill-rule="nonzero"></path>
                <path d="M12,2 C13.0914,2 14.1174,2.29247 15.0008,2.80367 C15.4789,3.08027 15.6421,3.69202 15.3655,4.17005 C15.0889,4.64807 14.4772,4.81136 13.9992,4.53476 C13.4118,4.19488 12.7302,4 12,4 C9.79086,4 8,5.79086 8,8 L19,8 C20.1046,8 21,8.89543 21,10 L21,20 C21,21.1046 20.1046,22 19,22 L5,22 C3.89543,22 3,21.1046 3,20 L3,10 C3,8.89543 3.89543,8 5,8 L6,8 C6,4.68629 8.68629,2 12,2 Z M12,12 C10.8954,12 10,12.8954 10,14 C10,14.7403 10.4022,15.3866 11,15.7324 L11,17 C11,17.5523 11.4477,18 12,18 C12.5523,18 13,17.5523 13,17 L13,15.7324 C13.5978,15.3866 14,14.7403 14,14 C14,12.8954 13.1046,12 12,12 Z M19.9182,5.02123 L20.8842,5.28005 C21.4176,5.42299 21.7342,5.97133 21.5913,6.50479 C21.4483,7.03826 20.9,7.35484 20.3665,7.2119 L19.4006,6.95308 C18.8671,6.81014 18.5506,6.2618 18.6935,5.72833 C18.8364,5.19487 19.3848,4.87829 19.9182,5.02123 Z M18.6334,2.08878 C19.1669,2.23172 19.4835,2.78005 19.3405,3.31352 L19.2111,3.79648 C19.0682,4.32995 18.5199,4.64653 17.9864,4.50359 C17.4529,4.36065 17.1363,3.81231 17.2793,3.27884 L17.4087,2.79588 C17.5516,2.26242 18.1,1.94583 18.6334,2.08878 Z" id="形状" fill="#09244B"></path>
            </g>
        </g>
    </g>
</svg>

<svg xmlns="http://www.w3.org/2000/svg" width="24" height="24"><g fill="none" fill-rule="evenodd"><path d="M24 0v24H0V0h24ZM12.593 23.258l-.011.002-.071.035-.02.004-.014-.004-.071-.035c-.01-.004-.019-.001-.024.005l-.004.01-.017.428.005.02.01.013.104.074.015.004.012-.004.104-.074.012-.016.004-.017-.017-.427c-.002-.01-.009-.017-.017-.018Zm.265-.113-.013.002-.185.093-.01.01-.003.011.018.43.005.012.008.007.201.093c.012.004.023 0 .029-.008l.004-.014-.034-.614c-.003-.012-.01-.02-.02-.022Zm-.715.002a.023.023 0 0 0-.027.006l-.006.014-.034.614c0 .012.007.02.017.024l.015-.002.201-.093.01-.008.004-.011.017-.43-.003-.012-.01-.01-.184-.092Z"/><path fill="#09244B" d="M12 2c1.091 0 2.117.292 3 .804a1 1 0 1 1-1 1.73A4 4 0 0 0 8 8l11 .001a2 2 0 0 1 2 2v10a2 2 0 0 1-2 2H5a2 2 0 0 1-2-2V10a2 2 0 0 1 2-2h1a6 6 0 0 1 6-6Zm0 10a2 2 0 0 0-1 3.732V17a1 1 0 1 0 2 0v-1.268A2 2 0 0 0 12 12Zm7.918-6.979.966.26a1 1 0 0 1-.518 1.93l-.965-.258a1 1 0 0 1 .517-1.932ZM18.633 2.09a1 1 0 0 1 .707 1.225l-.129.482a1 1 0 1 1-1.932-.517l.13-.483a1 1 0 0 1 1.224-.707Z"/></g></svg>
